src/images/platforms/icon-playstore.svg

<?xml version="1.0" encoding="UTF-8" standalone="no"?>
<svg width="41px" height="45px" viewBox="0 0 41 45" version="1.1" xmlns="http://www.w3.org/2000/svg" xmlns:xlink="http://www.w3.org/1999/xlink" xmlns:sketch="http://www.bohemiancoding.com/sketch/ns">
    <!-- Generator: Sketch 3.3.2 (12043) - http://www.bohemiancoding.com/sketch -->
    <title>Group</title>
    <desc>Created with Sketch.</desc>
    <defs>
        <linearGradient x1="19.2147947%" y1="-20.6909691%" x2="69.3023416%" y2="86.1408826%" id="linearGradient-1">
            <stop stop-color="#19A3B4" offset="0%"></stop>
            <stop stop-color="#5BC3AF" offset="34.816763%"></stop>
            <stop stop-color="#C9F7A6" offset="92.2336229%"></stop>
            <stop stop-color="#D7FEA5" offset="100%"></stop>
        </linearGradient>
        <linearGradient x1="31.4841646%" y1="-35.1571758%" x2="61.6094396%" y2="93.5367562%" id="linearGradient-2">
            <stop stop-color="#19A3B4" offset="0%"></stop>
            <stop stop-color="#5BC3AF" offset="34.816763%"></stop>
            <stop stop-color="#C9F7A6" offset="92.2336229%"></stop>
            <stop stop-color="#D7FEA5" offset="100%"></stop>
        </linearGradient>
        <linearGradient x1="8.40990169%" y1="-114.321644%" x2="65.9707598%" y2="114.156353%" id="linearGradient-3">
            <stop stop-color="#FC227C" offset="0%"></stop>
            <stop stop-color="#FEEB7B" offset="100%"></stop>
        </linearGradient>
        <linearGradient x1="50%" y1="0%" x2="50%" y2="100%" id="linearGradient-4">
            <stop stop-color="#1C68A8" offset="0%"></stop>
            <stop stop-color="#6BFED4" offset="100%"></stop>
        </linearGradient>
        <linearGradient x1="132.244588%" y1="22.1624275%" x2="5.95853392%" y2="113.347015%" id="linearGradient-5">
            <stop stop-color="#FC472E" offset="0%"></stop>
            <stop stop-color="#FC472E" offset="0.331892433%"></stop>
            <stop stop-color="#893CD8" offset="100%"></stop>
        </linearGradient>
        <linearGradient x1="99.464054%" y1="16.465744%" x2="23.5123063%" y2="126.310354%" id="linearGradient-6">
            <stop stop-color="#FC472E" offset="0%"></stop>
            <stop stop-color="#FC472E" offset="0.331892433%"></stop>
            <stop stop-color="#893CD8" offset="100%"></stop>
        </linearGradient>
    </defs>
    <g id="Page-1" stroke="none" stroke-width="1" fill="none" fill-rule="evenodd" sketch:type="MSPage">
        <g id="Group" sketch:type="MSLayerGroup">
            <g id="mask-3" transform="translate(2.000000, 0.500000)" fill="#FFFFFF" sketch:type="MSShapeGroup">
                <path d="M28.6078062,15.1442491 L2.27553101,0.452837387 C1.52889247,0.038342223 0.84025726,-0.0580811233 0.28243805,0.118486303 L21.8510359,22.0015769 L28.6078062,15.1442491" id="path-2"></path>
            </g>
            <g id="Fill-1" transform="translate(2.000000, 0.500000)" fill="url(#linearGradient-2)" sketch:type="MSShapeGroup">
                <path d="M28.6078062,15.1442491 L2.27553101,0.452837387 C1.52889247,0.038342223 0.84025726,-0.0580811233 0.28243805,0.118486303 L21.8510359,22.0015769 L28.6078062,15.1442491" id="path-2"></path>
            </g>
            <path d="M30.6423613,29.3927155 L39.6316425,24.3774493 C41.4544278,23.3568645 41.4544278,21.6963794 39.6316425,20.6782991 L30.6090403,15.6442491 L23.8510359,22.5015769 L30.6423613,29.3927155" id="Fill-2" fill="url(#linearGradient-3)" sketch:type="MSShapeGroup"></path>
            <g id="mask-7" transform="translate(0.000000, 0.500000)" fill="#FFFFFF" sketch:type="MSShapeGroup">
                <path d="M2.28120394,0.118486303 C1.48026442,0.372693307 0.961936837,1.19542238 0.961936837,2.44016012 L0.96687329,41.6155882 C0.96687329,42.8465512 1.4691574,43.6567578 2.24664877,43.9272441 L23.8510359,22.0053337 L2.28120394,0.118486303" id="path-6"></path>
            </g>
            <path d="M0.961936837,2.94016012 L0.96687329,42.1155882 C0.96687329,43.3465512 1.4691574,44.1567578 2.24664877,44.4272441 L23.8510359,22.5053337 L2.28120394,0.618486303 C1.48026442,0.872693307 0.961936837,1.69542238 0.961936837,2.94016012 Z" id="path-6" fill="url(#linearGradient-4)" sketch:type="MSShapeGroup"></path>
            <g id="mask-10" transform="translate(2.000000, 22.500000)" fill="#FFFFFF" sketch:type="MSShapeGroup">
                <path d="M0.24664877,21.9272441 C0.80817031,22.1200908 1.51038077,22.0299287 2.27553101,21.6041632 L28.638659,6.8927155 L21.8510359,0.0053337 L0.24664877,21.9272441" id="path-9"></path>
            </g>
            <g id="Fill-4" transform="translate(2.000000, 22.500000)" fill="url(#linearGradient-6)" sketch:type="MSShapeGroup">
                <path d="M0.24664877,21.9272441 C0.80817031,22.1200908 1.51038077,22.0299287 2.27553101,21.6041632 L28.638659,6.8927155 L21.8510359,0.0053337 L0.24664877,21.9272441" id="path-9"></path>
            </g>
        </g>
    </g>
</svg>

<svg width="41" height="45" viewBox="0 0 41 45" xmlns="http://www.w3.org/2000/svg"><title>Group</title><defs><linearGradient x1="31.484%" y1="-35.157%" x2="61.609%" y2="93.537%" id="a"><stop stop-color="#19A3B4" offset="0%"/><stop stop-color="#5BC3AF" offset="34.817%"/><stop stop-color="#C9F7A6" offset="92.234%"/><stop stop-color="#D7FEA5" offset="100%"/></linearGradient><linearGradient x1="8.41%" y1="-114.322%" x2="65.971%" y2="114.156%" id="b"><stop stop-color="#FC227C" offset="0%"/><stop stop-color="#FEEB7B" offset="100%"/></linearGradient><linearGradient x1="50%" y1="0%" x2="50%" y2="100%" id="c"><stop stop-color="#1C68A8" offset="0%"/><stop stop-color="#6BFED4" offset="100%"/></linearGradient><linearGradient x1="99.464%" y1="16.466%" x2="23.512%" y2="126.31%" id="d"><stop stop-color="#FC472E" offset="0%"/><stop stop-color="#FC472E" offset=".332%"/><stop stop-color="#893CD8" offset="100%"/></linearGradient></defs><g fill="none" fill-rule="evenodd"><path d="M30.608 15.644L4.276.954C3.53.537 2.84.44 2.282.617l21.57 21.884 6.756-6.858" fill="#FFF"/><path d="M28.608 15.144L2.276.454C1.53.037.84-.06.282.117l21.57 21.884 6.756-6.858" transform="translate(2 .5)" fill="url(#a)"/><path d="M30.642 29.393l8.99-5.016c1.822-1.02 1.822-2.68 0-3.7l-9.023-5.033-6.76 6.858 6.792 6.89" fill="url(#b)"/><path d="M2.28.618C1.48.873.963 1.695.963 2.94l.005 39.176c0 1.23.502 2.04 1.28 2.31l21.604-21.92L2.28.617" fill="#FFF"/><path d="M.962 2.94l.005 39.176c0 1.23.502 2.04 1.28 2.31l21.604-21.92L2.28.617C1.48.873.963 1.695.963 2.94z" fill="url(#c)"/><path d="M2.247 44.427c.56.193 1.263.103 2.03-.323l26.362-14.71-6.79-6.89L2.248 44.428" fill="#FFF"/><path d="M.247 21.927c.56.193 1.263.103 2.03-.323l26.362-14.71-6.79-6.89L.248 21.928" transform="translate(2 22.5)" fill="url(#d)"/></g></svg>
